X:1
T: Campbell of Laphroaig
C:Muriel A Johnstone
R:Strathspey
Q: 128
K:A
M:4/4
L:1/16
|:CE3 A3c B3A F4|E2FG A2c2 e3f ec3|df3 ce3 B3A F4|E2FG A2e2 B4A4|
CE3 A3c B3A F4|E2FG A2c2 e3f ec3|df3 ce3 B3A F4|E2FG A2e2 B4A4|
e2fg a2g2 fefg a4|FB3 B3c dcBA B2f2|e2fg a3g fefg a4|E2FG A2e2 B4A4|
e2fg a2g2 fefg agfe|fedc dcBA BAGF E2D2|CE3 A3c B3A F4|E2FG A2e2 B4A4:|
